X:1
T:Fair lady pity me.
B:Songs of the West by S. Baring-Gould.
S:A labouring man at Exbourne.
M:2/4
L:1/8
K:F
D|D ^C D =C|D3 =C|D E F G|A3 A|
w:Dear love, re-gard my grief, Do not my suit dis-dain; O
A3/2 A1/2 G E|(DEF) G|A3/2 D1/2 D ^C|D3 F|A A A A|
w:yield me some re-lief, **That am with so-rows slain. Pi-ty my grie-vous
d3 d|c B B c|A3 A| d d c A|
w:pain. Long suff-er'd for thy sake, Do not my suit dis-
(FGA) B|A F D3/2 D1/2|D3 F|A1/2 A1/2 A =B ^c|
w:dain. **No time I rest can take, These sev-en long years and
(d2 A) A|G3/2 G1/2 A B|A3 A| D3/2 D1/2 F G|
w:more Still *have I lov-ed thee; Do thou my joys re-store.
A3 G|A D D ^C|D3 z||
w:store. Fair la-dy pi-ty me.
W:Dear love, regard my grief,
W:Do not my suit disdain;
W:O yield me some relief,
W:That am with sorrows slain.
W:Pity my grievous pain
W:Long suffered for thy sake,
W:Do not my suit disdain
W:No time I rest can take.
W:These seven long years and more
W:Still have I loved thee;
W:Do thou my joys restore
W:Fair lady, pity me.
W:
W:Whilst that I live I love
W:So fancy urgeth me;
W:My mind cannot remove
W:Such is my constancy.
W:My mind is nobly bent
W:Tho' I'm of low degree;
W:Sweet lady, give consent
W:To love and pity me.
W:These seven long years and more
W:Still I have loved thee;
W:Do thou my joys restore
W:Fair lady, pity me.
